X:5
T: NUN LEB WOHL DU KLEINE GASSE
N: B0493
O: Europa, Mitteleuropa, Deutschland
R: Abschieds - Lied
M: 3/4
L: 1/16
K: A
A2B2 | c6A2A2F2 | F3EE4
E2A2 | B6A2d2c2 | B4z4
B3F | A3GG4B3F | A3GG4z4
A3EF2E2A2B2 | c4e4d4
c3cc2E2c3B | A8

